Resources/Icons/pianoTrack.svg

<svg version="1.1" xmlns="http://www.w3.org/2000/svg">
  <path style="fill:#000000"
     d="M 303.65625 339 C 302.31278 338.93351 300.28555 339.62682 297.09375 340.78125 C 286.46856 344.62421 287.4375 337.11978 287.4375 416.78125 C 287.4375 455.45113 287.17191 487.0625 286.875 487.0625 C 286.57809 487.0625 284.53509 486.13389 282.3125 485 C 262.32382 474.80254 230.36544 477.84419 209.75 491.875 C 169.85427 519.02792 181.92208 567.75356 230.0625 573.9375 C 258.80837 577.63008 289.62471 563.47655 301.875 540.96875 C 307.07175 531.42059 307.38735 527.32301 307.40625 467.3125 C 307.4158 436.925 307.62204 412.0625 307.875 412.0625 C 308.12796 412.0625 310.49046 414.39774 313.125 417.21875 C 317.105 421.48048 320.55876 423.59479 333.4375 429.8125 C 361.10739 443.17121 367.97158 451.56811 370.34375 474.875 C 371.38896 485.14434 371.29111 485.05568 378.03125 481.75 C 383.57566 479.03077 383.57235 479.03788 383.25 452.3125 C 382.76232 411.88113 379.34548 406.57851 341.25 387 C 318.46058 375.28778 308.38447 363.59119 306.78125 347.0625 C 306.22354 341.31269 305.89536 339.11081 303.65625 339 z M 137.875 366.59375 L 137.875 366.71875 L 138.4375 366.71875 L 138.4375 366.59375 L 137.875 366.59375 z M 432.8125 544.28125 L 432.8125 544.3125 L 433.25 544.3125 L 433.25 544.28125 L 432.8125 544.28125 z "
     id="path3063" />
</svg>

<svg version="1.1" xmlns="http://www.w3.org/2000/svg"><path d="M303.656 339c-1.343-.066-3.37.627-6.562 1.781-10.625 3.843-9.656-3.661-9.656 76 0 38.67-.266 70.281-.563 70.281-.297 0-2.34-.928-4.563-2.062-19.988-10.197-51.947-7.156-72.562 6.875-39.896 27.153-27.828 75.879 20.313 82.063 28.745 3.692 59.562-10.461 71.812-32.97 5.197-9.547 5.512-13.645 5.531-73.655.01-30.388.216-55.25.469-55.25s2.615 2.335 5.25 5.156c3.98 4.261 7.434 6.376 20.313 12.594 27.67 13.358 34.534 21.755 36.906 45.062 1.045 10.27.947 10.18 7.687 6.875 5.545-2.72 5.541-2.712 5.219-29.438-.488-40.43-3.905-45.733-42-65.312-22.79-11.712-32.866-23.409-34.469-39.938-.557-5.75-.886-7.951-3.125-8.062zm-165.781 27.594v.125h.563v-.125h-.563zM432.813 544.28v.032h.437v-.032h-.438z" fill="#000"/></svg>
